X:5
T: Sakura
N: I0001
O: Asien, Ostasien, Japan
N: ]
R: Volkslied
M: 4/4
L: 1/8
K: C
A2A2B2z2 | A2A2B3z |
A2B2c2B2 | A2BAF3z |
E2C2E2F2 | E2ECB,3z |
A2B2c2B2 | A2BAF3z |
E2C2E2F2 | E2ECB,3z |
A2A2B2z2 | A2A2B4 |
z2E2F4 | BAF2E4

@@@ Tune index: 9681
